packages/form-js-viewer/src/render/components/icons/Number.svg

<svg xmlns="http://www.w3.org/2000/svg" width="54" height="54" viewBox="0 0 54 54" fill="currentcolor">
  <path fill-rule="evenodd" d="M45,16 C46.6568542,16 48,17.3431458 48,19 L48,35 C48,36.6568542 46.6568542,38 45,38 L9,38 C7.34314575,38 6,36.6568542 6,35 L6,19 C6,17.3431458 7.34314575,16 9,16 L45,16 Z M45,18 L9,18 C8.44771525,18 8,18.4477153 8,19 L8,19 L8,35 C8,35.5522847 8.44771525,36 9,36 L9,36 L45,36 C45.5522847,36 46,35.5522847 46,35 L46,35 L46,19 C46,18.4477153 45.5522847,18 45,18 L45,18 Z M35,28.4444444 L42,28.4444444 L38.5,32.4444444 L35,28.4444444 Z M35,26 L42,26 L38.5,22 L35,26 Z"/>
</svg>

<svg xmlns="http://www.w3.org/2000/svg" width="54" height="54" fill="currentcolor"><path fill-rule="evenodd" d="M45 16a3 3 0 0 1 3 3v16a3 3 0 0 1-3 3H9a3 3 0 0 1-3-3V19a3 3 0 0 1 3-3h36zm0 2H9a1 1 0 0 0-1 1v16a1 1 0 0 0 1 1h36a1 1 0 0 0 1-1V19a1 1 0 0 0-1-1zM35 28.444h7l-3.5 4-3.5-4zM35 26h7l-3.5-4-3.5 4z"/></svg>
